icons/mobile/24/svg/link-24.svg

<svg width="24" height="24" viewBox="0 0 24 24" fill="none" xmlns="http://www.w3.org/2000/svg">
<path d="M7.58887 7C9.21512 7 10.5332 8.31809 10.5332 9.94434H8.7832C8.7832 9.28458 8.24862 8.75 7.58887 8.75H5.18457C4.61023 8.75021 4.11309 9.16266 4.00781 9.72363C3.80454 10.81 3.75 11.7613 3.75 12.5C3.75 13.2387 3.80454 14.19 4.00781 15.2764C4.11309 15.8373 4.61023 16.2498 5.18457 16.25H7.58887C8.24862 16.25 8.7832 15.7154 8.7832 15.0557H10.5332C10.5332 16.6819 9.21512 18 7.58887 18H5.18457C3.77141 17.9998 2.54892 16.9902 2.28809 15.5977C2.0614 14.3861 2 13.3252 2 12.5C2 11.6748 2.0614 10.6139 2.28809 9.40234C2.54892 8.00981 3.77141 7.0002 5.18457 7H7.58887Z" fill="black"/>
<path d="M18.8145 7C20.2278 7 21.451 8.00969 21.7119 9.40234C21.9386 10.6139 22 11.6748 22 12.5C22 13.3252 21.9386 14.3861 21.7119 15.5977C21.451 16.9903 20.2278 18 18.8145 18H16.4111C14.785 17.9999 13.4668 16.6818 13.4668 15.0557H15.2168C15.2168 15.7153 15.7515 16.2499 16.4111 16.25H18.8145C19.389 16.25 19.8869 15.8375 19.9922 15.2764C20.1955 14.19 20.25 13.2387 20.25 12.5C20.25 11.7613 20.1955 10.81 19.9922 9.72363C19.8869 9.16252 19.389 8.75 18.8145 8.75H16.4111C15.7515 8.75013 15.2168 9.28467 15.2168 9.94434H13.4668C13.4668 8.31817 14.785 7.00013 16.4111 7H18.8145Z" fill="black"/>
<path d="M16.125 11.625C16.6082 11.625 17 12.0168 17 12.5C17 12.9832 16.6082 13.375 16.125 13.375H7.875C7.39175 13.375 7 12.9832 7 12.5C7 12.0168 7.39175 11.625 7.875 11.625H16.125Z" fill="black"/>
</svg>

<!-- This Source Code Form is subject to the terms of the Mozilla Public
   - License, v. 2.0. If a copy of the MPL was not distributed with this
   - file, You can obtain one at http://mozilla.org/MPL/2.0/. -->
<svg xmlns="http://www.w3.org/2000/svg" width="24" height="24" fill="none" viewBox="0 0 24 24">
    <path fill="#000" d="M7.589 7a2.944 2.944 0 0 1 2.944 2.944h-1.75c0-.66-.534-1.194-1.194-1.194H5.185a1.2 1.2 0 0 0-1.177.974 15.1 15.1 0 0 0 0 5.552 1.2 1.2 0 0 0 1.177.974h2.404c.66 0 1.194-.535 1.194-1.194h1.75A2.944 2.944 0 0 1 7.59 18H5.185a2.95 2.95 0 0 1-2.897-2.402 16.9 16.9 0 0 1 0-6.196A2.95 2.95 0 0 1 5.185 7zm11.226 0a2.95 2.95 0 0 1 2.897 2.402 16.9 16.9 0 0 1 0 6.196A2.95 2.95 0 0 1 18.814 18h-2.403a2.944 2.944 0 0 1-2.944-2.944h1.75c0 .66.534 1.194 1.194 1.194h2.403a1.2 1.2 0 0 0 1.178-.974 15.1 15.1 0 0 0 0-5.552 1.2 1.2 0 0 0-1.178-.974h-2.403c-.66 0-1.194.535-1.194 1.194h-1.75A2.944 2.944 0 0 1 16.41 7z" />
    <path fill="#000" d="M16.125 11.625a.875.875 0 0 1 0 1.75h-8.25a.875.875 0 0 1 0-1.75z" />
</svg>
